X:1
T:Johannesburg, 88.88.88
T:Johannesburg, 88.88.88
T:Ada Rose Gibbs (1864-1905)
T:Public Domain Courtesy of the Cyber Hymnal™
C:Ada Rose Gibbs (1864-1905)
Z:Public Domain
Z:Courtesy of the Cyber Hymnal™
%%score ( 1 2 ) ( 3 4 )
L:1/8
Q:1/4=108
M:4/4
K:G
V:1 treble 
V:2 treble 
V:3 bass 
V:4 bass 
V:1
 [GB]2 | [GB]3 [GB] [FA]2 [GB]2 | [Fd]3 [FA] [FA]2 [GB]2 | [Ac]3 [Ac] [GB]2 [Ac]2 | %4
 [Ge]3 [GB] [GB]2 [Fc]2 | [Gd]2 [Gd]2 [G^c]2 [Gd]2 | [^Gd]3 [Gd] [G^c]2 [Gd]2 | %7
 [Ad]2 [FA]2 [Ad]2 [Be]2 | [Ad]4 [G^c]4 | [Fd]6 [F=c]2 | [GB]2 G2 [Gd]3 [Gd] | %11
 [Ge]2 [Gd]2 (cB) [FA]2 | [GB]2 [Fc]2 [Gd]2 (Gc) | [GB]4 [FA]4 | G6 |] %15
V:2
 x2 | x8 | x8 | x8 | x8 | x8 | x8 | x8 | x8 | x8 | x2 G2 x4 | x4 F2 x2 | x6 G2 | x8 | G6 |] %15
V:3
 [G,D]2 | [G,D]3 [G,D] [CD]2 [B,D]2 | [D,D]3 [D,D] [D,D]2 [D,D]2 | [D,D]3 [D,D] [D,D]2 [D,D]2 | %4
 [G,C]3 [G,D] [G,D]2 [A,C]2 | [B,D]2 [B,D]2 [B,D]2 [B,D]2 | [_B,D]3 [B,D] [B,D]2 [B,D]2 | %7
 [A,F]2 [A,D]2 [A,F]2 [G,G]2 | [A,F]4 [A,E]4 | [D,D]6 [D,D]2 | [G,D]2 [G,B,]2 [B,D]3 [B,D] | %11
 C2 [B,D]2 [A,D]2 [D,D]2 | [G,D]2 [A,D]2 [B,D]2 [CE]2 | D4 [D,C]4 | [G,B,]6 |] %15
V:4
 x2 | x8 | x8 | x8 | x8 | x8 | x8 | x8 | x8 | x8 | x8 | C2 x6 | x8 | D4 x4 | x6 |] %15

